X: 2
T: Paddy Fahey's
R: reel
M: 4/4
L: 1/8
K: Gdor
BDGA BDGB|AD^FA d2 dc|ABGA BDGB|AdAG DGGA|
Bc/4B/4A/ Bd BDGB|AD^FA d2 dc|=B/c/d g^f gdBd|c2 =BG DG G2||
[K:G] Bdgd adfd|Bdgd cAAc|Bdgd adBd|c2 BG DG G2|
Bdgd adfd|Bdfa g3 a|bg a/4g/4f/g dcBd|c2 BG DG G2||
[K:F] ABGA BDGB|AD^FA d2 dc|ABGA BDGB|AdAG DGGA|
Bc/4B/4A/ Bd BDGB|AD^FA d2 dc|=B/c/d g^f gdBd|c2 =BG DG G2|
[K:G] Bdgd adfd|Bdgd cAAc|B/c/d ad Bdgd c2 BA DG G2|
B/c/d ad gdfd|Bdfa g3 a|bg a/4g/4f/g dcBd|c2 BG DG G2||

composer: Paddy Fahey
